project/images/official/editable/531.svg

<?xml version="1.0" encoding="UTF-8" standalone="no"?>
<svg
   width="53.750153pt"
   height="36.815174pt"
   viewBox="0 0 53.750153 36.815174"
   version="1.1"
   id="svg3513"
   xmlns="http://www.w3.org/2000/svg"
   xmlns:svg="http://www.w3.org/2000/svg">
  <defs
     id="defs3517" />
  <g
     id="layer2"
     style="display:inline"
     transform="scale(0.74036996,1)" />
  <g
     id="layer1"
     transform="scale(0.90238214,1.0290389)">
    <rect
       style="display:inline;fill:#ffffff;stroke:none;stroke-width:0;stroke-linecap:square;stroke-miterlimit:4;stroke-dasharray:none;stroke-opacity:1"
       id="rect3621"
       width="59.564735"
       height="35.776272"
       x="0"
       y="8.8817842e-16" />
    <rect
       style="display:inline;fill:none;stroke:#000000;stroke-width:0.164154;stroke-linecap:square;stroke-miterlimit:4;stroke-dasharray:none;stroke-opacity:1"
       id="rect3621-4"
       width="58.666401"
       height="34.468613"
       x="0.486384"
       y="0.729029" />
  </g>
  <g
     id="layer3"
     style="display:inline"
     transform="translate(-3.0659193,-0.0936885)">
    <g
       id="surface1"
       transform="translate(7.4214645,3.3294012)"
       style="display:inline">
      <path
         style="fill:#211e1e;fill-opacity:1;fill-rule:nonzero;stroke:none"
         d="m 33.613281,12.800781 c 0.714844,-0.1875 1.464844,-0.332031 2.226563,-0.332031 4.65625,0 8.4375,3.78125 8.4375,8.4375 0,4.660156 -3.78125,8.4375 -8.4375,8.4375 -4.121094,0 -7.558594,-2.957031 -8.296875,-6.867188 l -1.832031,-0.0078 c -0.449219,0 -1.003907,0 -1.441407,-0.179688 -0.46875,-0.152343 -0.863281,-0.488281 -1.210937,-0.828124 l -10.375,-10.382813 -0.582032,1.851563 c 3.203126,1.210937 5.558594,4.25 5.558594,7.875 0,4.660156 -3.789062,8.457031 -8.445312,8.457031 -4.667969,0 -8.453125,-3.796875 -8.453125,-8.457031 0,-4.65625 3.785156,-8.445313 8.453125,-8.445313 0.460937,0 0.878906,0.05859 1.324218,0.132813 l 2.542969,-8.921876 c 0.171875,-0.597656 0.410157,-1.324218 0.832031,-1.75 C 14.40625,1.316406 15.21875,1 16.167969,1 h 3.113281 v 1.648438 h -2.492188 c -0.492187,0 -1.109374,0 -1.441406,0.273437 -0.332031,0.296875 -0.4375,0.671875 -0.566406,1.117187 L 14.226562,5.84375 H 29.136719 L 29.660156,4.3125 27.300781,3.742188 v -1.09375 h 5.296875 V 4.3125 h -1.273437 l -0.554688,1.53125 2.84375,6.957031"
         id="path3377" />
      <path
         style="fill:#ffffff;fill-opacity:1;fill-rule:nonzero;stroke:none"
         d="m 34.242188,14.46875 c 0.496093,-0.121094 1.023437,-0.183594 1.5625,-0.183594 3.648437,0 6.613281,2.964844 6.613281,6.613282 0,3.652343 -2.964844,6.621093 -6.613281,6.621093 -3.105469,0 -5.71875,-2.148437 -6.429688,-5.035156 l 5.328125,-0.0078 c 0.644531,0 1.632813,0.04297 2.035156,-0.589843 0.332031,-0.539063 -0.08594,-1.375 -0.222656,-1.757813 L 34.242188,14.46875"
         id="path3379" />
      <path
         style="fill:#ffffff;fill-opacity:1;fill-rule:nonzero;stroke:none"
         d="M 28.601562,7.429688 24.363281,20.410156 13.273438,9.214844 13.785156,7.429688 h 14.816406"
         id="path3381" />
      <path
         style="fill:#ffffff;fill-opacity:1;fill-rule:nonzero;stroke:none"
         d="m 32.050781,13.339844 c -2.71875,1.375 -4.597656,4.191406 -4.648437,7.4375 h -1.441406 l 4.046874,-12.273438 2.042969,4.835938"
         id="path3383" />
      <path
         style="fill:#ffffff;fill-opacity:1;fill-rule:nonzero;stroke:none"
         d="m 11.632812,14.664062 c 2.441407,0.972657 4.167969,3.355469 4.167969,6.140626 0,3.652343 -2.964843,6.613281 -6.617187,6.613281 -3.648438,0 -6.613282,-2.960938 -6.613282,-6.613281 0,-3.648438 2.964844,-6.605469 6.613282,-6.605469 0.273437,0 0.554687,0.01172 0.824218,0.04687 L 8.21875,20.582031 C 8.125,20.894531 8.0625,21.492188 8.746094,21.6875 9.421875,21.878906 9.761719,21.40625 9.863281,21.058594 l 1.769531,-6.394532"
         id="path3385" />
      <path
         style="fill:#ffffff;fill-opacity:1;fill-rule:nonzero;stroke:none"
         d="m 32.683594,15.0625 2.25,5.714844 h -5.71875 c 0,-2.519532 1.390625,-4.59375 3.46875,-5.714844"
         id="path3387" />
    </g>
  </g>
</svg>

<?xml version="1.0" encoding="UTF-8"?>
<svg xmlns="http://www.w3.org/2000/svg" xmlns:xlink="http://www.w3.org/1999/xlink" width="45pt" height="30pt" viewBox="0 0 45 30" version="1.1">
<g id="surface1">
<path style=" stroke:none;fill-rule:nonzero;fill:rgb(13.729858%,12.159729%,12.548828%);fill-opacity:1;" d="M 33.613281 12.800781 C 34.328125 12.613281 35.078125 12.46875 35.839844 12.46875 C 40.496094 12.46875 44.277344 16.25 44.277344 20.90625 C 44.277344 25.566406 40.496094 29.34375 35.839844 29.34375 C 31.71875 29.34375 28.28125 26.386719 27.542969 22.476562 L 25.710938 22.46875 C 25.261719 22.46875 24.707031 22.46875 24.269531 22.289062 C 23.800781 22.136719 23.40625 21.800781 23.058594 21.460938 L 12.683594 11.078125 L 12.101562 12.929688 C 15.304688 14.140625 17.660156 17.179688 17.660156 20.804688 C 17.660156 25.464844 13.871094 29.261719 9.214844 29.261719 C 4.546875 29.261719 0.761719 25.464844 0.761719 20.804688 C 0.761719 16.148438 4.546875 12.359375 9.214844 12.359375 C 9.675781 12.359375 10.09375 12.417969 10.539062 12.492188 L 13.082031 3.570312 C 13.253906 2.972656 13.492188 2.246094 13.914062 1.820312 C 14.40625 1.316406 15.21875 1 16.167969 1 L 19.28125 1 L 19.28125 2.648438 L 16.789062 2.648438 C 16.296875 2.648438 15.679688 2.648438 15.347656 2.921875 C 15.015625 3.21875 14.910156 3.59375 14.78125 4.039062 L 14.226562 5.84375 L 29.136719 5.84375 L 29.660156 4.3125 L 27.300781 3.742188 L 27.300781 2.648438 L 32.597656 2.648438 L 32.597656 4.3125 L 31.324219 4.3125 L 30.769531 5.84375 L 33.613281 12.800781 "/>
<path style=" stroke:none;fill-rule:nonzero;fill:rgb(100%,100%,100%);fill-opacity:1;" d="M 34.242188 14.46875 C 34.738281 14.347656 35.265625 14.285156 35.804688 14.285156 C 39.453125 14.285156 42.417969 17.25 42.417969 20.898438 C 42.417969 24.550781 39.453125 27.519531 35.804688 27.519531 C 32.699219 27.519531 30.085938 25.371094 29.375 22.484375 L 34.703125 22.476562 C 35.347656 22.476562 36.335938 22.519531 36.738281 21.886719 C 37.070312 21.347656 36.652344 20.511719 36.515625 20.128906 L 34.242188 14.46875 "/>
<path style=" stroke:none;fill-rule:nonzero;fill:rgb(100%,100%,100%);fill-opacity:1;" d="M 28.601562 7.429688 L 24.363281 20.410156 L 13.273438 9.214844 L 13.785156 7.429688 L 28.601562 7.429688 "/>
<path style=" stroke:none;fill-rule:nonzero;fill:rgb(100%,100%,100%);fill-opacity:1;" d="M 32.050781 13.339844 C 29.332031 14.714844 27.453125 17.53125 27.402344 20.777344 L 25.960938 20.777344 L 30.007812 8.503906 L 32.050781 13.339844 "/>
<path style=" stroke:none;fill-rule:nonzero;fill:rgb(100%,100%,100%);fill-opacity:1;" d="M 11.632812 14.664062 C 14.074219 15.636719 15.800781 18.019531 15.800781 20.804688 C 15.800781 24.457031 12.835938 27.417969 9.183594 27.417969 C 5.535156 27.417969 2.570312 24.457031 2.570312 20.804688 C 2.570312 17.15625 5.535156 14.199219 9.183594 14.199219 C 9.457031 14.199219 9.738281 14.210938 10.007812 14.246094 L 8.21875 20.582031 C 8.125 20.894531 8.0625 21.492188 8.746094 21.6875 C 9.421875 21.878906 9.761719 21.40625 9.863281 21.058594 L 11.632812 14.664062 "/>
<path style=" stroke:none;fill-rule:nonzero;fill:rgb(100%,100%,100%);fill-opacity:1;" d="M 32.683594 15.0625 L 34.933594 20.777344 L 29.214844 20.777344 C 29.214844 18.257812 30.605469 16.183594 32.683594 15.0625 "/>
</g>
</svg>
